**kern	**silbe	**kern	**silbe	**harmony	**chordsym	**phrase	**timestamp	**leadinstrument
*ICvox	*	*ICvox	*	*M4/4	*M4/4	*	*	*
*G:	*	*G:	*	*G:	*G:	*	*	*
*M4/4	*	*M4/4	*	*	*	*	*	*
*clefF4	*	*clefF4	*	*	*	*	*	*
r;	.	r;	.	1r;	r	.	0	r
=1	=1	=1	=1	=1	=1	=1	=1	=1
*	*	*	*	*>A_intro	*>A_intro	*>A_intro	*>A_intro	*>A_intro
1r	.	1r	.	1GM	G:maj (G B D)	newline	0.325	r
=2	=2	=2	=2	=2	=2	=2	=2	=2
1r	.	1r	.	1Emm	E:min9 (E G D F#)	.	.	r
=3	=3	=3	=3	=3	=3	=3	=3	=3
1r	.	1r	.	1CMM	C:maj9 (C E B D)	.	.	r
=4	=4	=4	=4	=4	=4	=4	=4	=4
1r	.	1r	.	1Bmm	B:min7 (B D F# A)	.	.	r
=5	=5	=5	=5	=5	=5	=5	=5	=5
1r	.	4r	.	1GM	G:maj (G B D)	newline	10.157	r
.	.	4B	Ha	.	.	.	.	.
.	.	8c	ha	.	.	.	.	.
.	.	8d	ha	.	.	.	.	.
.	.	8r	.	.	.	.	.	.
.	.	8eq	_	.	.	.	.	.
.	.	8[f#	ha	.	.	.	.	.
=6	=6	=6	=6	=6	=6	=6	=6	=6
1r	.	4.f#]	_	1Emm	E:min9 (E G D F#)	.	.	r
.	.	8d	ha	.	.	.	.	.
.	.	2r	.	.	.	.	.	.
=7	=7	=7	=7	=7	=7	=7	=7	=7
1r	.	1r	.	1CMM	C:maj9 (C E B D)	.	.	r
=8	=8	=8	=8	=8	=8	=8	=8	=8
1r	.	1r	.	1Bmm	B:min7 (B D F# A)	.	.	r
=9	=9	=9	=9	=9	=9	=9	=9	=9
1r	.	4r	.	1GM	G:maj (G B D)	newline	20.019	r
.	.	4B	Ha	.	.	.	.	.
.	.	8c	ha	.	.	.	.	.
.	.	8d	ha	.	.	.	.	.
.	.	8r	.	.	.	.	.	.
.	.	8eq	_	.	.	.	.	.
.	.	8[f#	ha	.	.	.	.	.
=10	=10	=10	=10	=10	=10	=10	=10	=10
1r	.	4.f#]	_	1Emm	E:min9 (E G D F#)	.	.	r
.	.	8d	ha	.	.	.	.	.
.	.	2r	.	.	.	.	.	.
=11	=11	=11	=11	=11	=11	=11	=11	=11
1r	.	1r	.	1CMM	C:maj9 (C E B D)	.	.	r
=12	=12	=12	=12	=12	=12	=12	=12	=12
1r	.	1r	.	1Bmm	B:min7 (B D F# A)	.	.	r
=13	=13	=13	=13	=13	=13	=13	=13	=13
1r	.	1r	.	1Am	A:min (A C E)	newline	29.882	r
=14	=14	=14	=14	=14	=14	=14	=14	=14
1r	.	1r	.	1FM	F:maj6(9) (F A C D G)	.	.	r
=15	=15	=15	=15	=15	=15	=15	=15	=15
1r	.	1r	.	1N	N	.	.	r
=16	=16	=16	=16	=16	=16	=16	=16	=16
*	*	*	*	*>B_verse	*>B_verse	*>B_verse	*>B_verse	*>B_verse
4r	.	1r	.	1GM	G:maj (G B D)	newline	37.616	voice
8B	So	.	.	.	.	.	.	.
8A#q	_	.	.	.	.	.	.	.
8[B	true	.	.	.	.	.	.	.
4B_	_	.	.	.	.	.	.	.
16B]	_	.	.	.	.	.	.	.
8.r	.	.	.	.	.	.	.	.
=17	=17	=17	=17	=17	=17	=17	=17	=17
16B	fun-	1r	.	1Bm	B:min (B D F#)	.	.	voice
16B	-ny	.	.	.	.	.	.	.
8B	how	.	.	.	.	.	.	.
8c	it	.	.	.	.	.	.	.
8Aq	_	.	.	.	.	.	.	.
8[B	seems	.	.	.	.	.	.	.
4.B]	_	.	.	.	.	.	.	.
8r	.	.	.	.	.	.	.	.
=18	=18	=18	=18	=18	=18	=18	=18	=18
8c	al-	1r	.	1CM	C:maj (C E G)	.	.	voice
8B	-ways	.	.	.	.	.	.	.
8A	in	.	.	.	.	.	.	.
8[G	time	.	.	.	.	.	.	.
4G]	_	.	.	.	.	.	.	.
8r	.	.	.	.	.	.	.	.
8G	but	.	.	.	.	.	.	.
=19	=19	=19	=19	=19	=19	=19	=19	=19
8B-q	_	.	.	.	.	.	.	.
4.c	ne-	1r	.	1E-M	E-:maj (E- G B-)	.	.	voice
16B-	-ver	.	.	.	.	.	.	.
16A	in	.	.	.	.	.	.	.
4G	line	.	.	.	.	.	.	.
8A	for	.	.	.	.	.	.	.
16B	dreams	.	.	.	.	.	.	.
16A	_	.	.	.	.	.	.	.
=20	=20	=20	=20	=20	=20	=20	=20	=20
4.B	_	1r	.	1GM	G:maj (G B D)	newline	47.438	voice
8r	.	.	.	.	.	.	.	.
8B	Head	.	.	.	.	.	.	.
8d	o-	.	.	.	.	.	.	.
8e	-ver	.	.	.	.	.	.	.
8[f#	heels	.	.	.	.	.	.	.
=21	=21	=21	=21	=21	=21	=21	=21	=21
4f#]	_	1r	.	1Bm	B:min (B D F#)	.	.	voice
8c#q	_	.	.	.	.	.	.	.
4d	when	.	.	.	.	.	.	.
8B	toe	.	.	.	.	.	.	.
8[d	to	.	.	.	.	.	.	.
4d]	_	.	.	.	.	.	.	.
=22	=22	=22	=22	=22	=22	=22	=22	=22
4G	toe	1r	.	2..CM	C:maj (C E G)	.	.	voice
8E	_	.	.	.	.	.	.	.
8r	.	.	.	.	.	.	.	.
8G	this	.	.	.	.	.	.	.
8A	is	.	.	.	.	.	.	.
8G	the	.	.	.	.	.	.	.
8[d	sound	.	.	8Emm	E:min7 (E G B D)	newline	.	voice
=23	=23	=23	=23	=23	=23	=23	=23	=23
2d_	_	1r	.	2..Emm	E:min7 (E G B D)	.	54.875	voice
8d]	_	.	.	.	.	.	.	.
8e	of	.	.	.	.	.	.	.
8d	my	.	.	.	.	.	.	.
8[G	soul	.	.	8CM	C:maj (C E G)	.	.	voice
=24	=24	=24	=24	=24	=24	=24	=24	=24
4G]	_	1r	.	2..CM	C:maj (C E G)	.	.	voice
4r	.	.	.	.	.	.	.	.
8G	This	.	.	.	.	.	.	.
8A	is	.	.	.	.	.	.	.
8G	the	.	.	.	.	.	.	.
16.d	sound	.	.	8GM	G:maj (G B D)	.	.	voice
32c	_	.	.	.	.	.	.	.
=25	=25	=25	=25	=25	=25	=25	=25	=25
1d	_	1r	.	2GM	G:maj (G B D)	.	.	voice
.	.	.	.	2GM	G:maj (F# G B D)	.	.	voice
=26	=26	=26	=26	=26	=26	=26	=26	=26
8r	.	1r	.	1CM	C:maj (C E G)	.	.	voice
8e	I	.	.	.	.	.	.	.
8e	bought	.	.	.	.	.	.	.
8e	a	.	.	.	.	.	.	.
16e	ti-	.	.	.	.	.	.	.
16d	-cket	.	.	.	.	.	.	.
8c	to	.	.	.	.	.	.	.
8B	the	.	.	.	.	.	.	.
8Aq	_	.	.	.	.	.	.	.
8[B	world	.	.	.	.	.	.	.
=27	=27	=27	=27	=27	=27	=27	=27	=27
16B]	_	1r	.	1GM	G:maj (G B D)	newline	62.241	voice
16A	_	.	.	.	.	.	.	.
8[B	_	.	.	.	.	.	.	.
8.B]	_	.	.	.	.	.	.	.
16r	.	.	.	.	.	.	.	.
2r	.	.	.	.	.	.	.	.
=28	=28	=28	=28	=28	=28	=28	=28	=28
8r	.	1r	.	2CM	C:maj (C E G)	.	.	voice
8c	but	.	.	.	.	.	.	.
8c	now	.	.	.	.	.	.	.
8c	I've	.	.	.	.	.	.	.
8c	come	.	.	2CM	C:maj (B C E G)	.	.	voice
8B	back	.	.	.	.	.	.	.
8A	a-	.	.	.	.	.	.	.
8[B	-gain	.	.	.	.	.	.	.
=29	=29	=29	=29	=29	=29	=29	=29	=29
16B]	_	1r	.	1GM	G:maj (G B D)	.	.	voice
16A	_	.	.	.	.	.	.	.
8[G	_	.	.	.	.	.	.	.
8G]	_	.	.	.	.	.	.	.
8r	.	.	.	.	.	.	.	.
2r	.	.	.	.	.	.	.	.
=30	=30	=30	=30	=30	=30	=30	=30	=30
4r	.	1r	.	2CM	C:maj (C E G)	.	.	voice
8e	Why	.	.	.	.	.	.	.
16e	do	.	.	.	.	.	.	.
16e	I	.	.	.	.	.	.	.
8g	find	.	.	2CM	C:maj (B C E G)	.	.	voice
8g	it	.	.	.	.	.	.	.
8eq	_	.	.	.	.	.	.	.
8d	hard	.	.	.	.	.	.	.
8d	to	.	.	.	.	.	.	.
=31	=31	=31	=31	=31	=31	=31	=31	=31
8e	write	1r	.	1GM	G:maj (G B D)	newline	72.042	voice
16d	the	.	.	.	.	.	.	.
16[d	next	.	.	.	.	.	.	.
8d]	_	.	.	.	.	.	.	.
8B	line	.	.	.	.	.	.	.
4r	.	.	.	.	.	.	.	.
8r	.	.	.	.	.	.	.	.
8G	Oh,	.	.	.	.	.	.	.
=32	=32	=32	=32	=32	=32	=32	=32	=32
*M3/4	*	*M3/4	*	*M3/4	*M3/4	*M3/4	*M3/4	*M3/4
8c	I	2.r	.	4.CM	C:maj (C E G)	.	.	voice
8B	want	.	.	.	.	.	.	.
8G	the	.	.	.	.	.	.	.
8c	truth	.	.	4.CM	C:maj (B C E G)	.	.	voice
8B	to	.	.	.	.	.	.	.
8G	be	.	.	.	.	.	.	.
=33	=33	=33	=33	=33	=33	=33	=33	=33
*M4/4	*	*M4/4	*	*M4/4	*M4/4	*M4/4	*M4/4	*M4/4
2.G	said	1r	.	1FMM	F:maj9 (F A E G)	.	.	voice
4r	.	.	.	.	.	.	.	.
=34	=34	=34	=34	=34	=34	=34	=34	=34
*	*	*	*	*>A_chorus	*>A_chorus	*>A_chorus	*>A_chorus	*>A_chorus
1r	.	4r	.	1GM	G:maj (G B D)	newline	81.305	voice
.	.	4B	Ha	.	.	.	.	.
.	.	8c	ha	.	.	.	.	.
.	.	8d	ha	.	.	.	.	.
.	.	8r	.	.	.	.	.	.
.	.	8eq	_	.	.	.	.	.
.	.	8[f#	ha	.	.	.	.	.
=35	=35	=35	=35	=35	=35	=35	=35	=35
2r	.	4.f#]	_	1Emm	E:min9 (E G D F#)	.	.	voice
.	.	8d	ha	.	.	.	.	.
4r	.	2r	.	.	.	.	.	.
8r	.	.	.	.	.	.	.	.
8G	I	.	.	.	.	.	.	.
=36	=36	=36	=36	=36	=36	=36	=36	=36
4.d	know	4.d	know	1CMM	C:maj9 (C E B D)	.	.	voice
8[G	this	8[G	this	.	.	.	.	.
4G]	_	4G]	_	.	.	.	.	.
4r	.	4r	.	.	.	.	.	.
=37	=37	=37	=37	=37	=37	=37	=37	=37
4.d	much	4.d	much	1Bmm	B:min7 (B D F# A)	.	.	voice
8G	is	8G	is	.	.	.	.	.
4r	.	4r	.	.	.	.	.	.
8A	true!	8A	true!	.	.	.	.	.
8G	_	8G	_	.	.	.	.	.
=38	=38	=38	=38	=38	=38	=38	=38	=38
1r	.	4r	.	1GM	G:maj (G B D)	newline	91.119	voice
.	.	4B	Ha	.	.	.	.	.
.	.	8c	ha	.	.	.	.	.
.	.	8d	ha	.	.	.	.	.
.	.	8r	.	.	.	.	.	.
.	.	8eq	_	.	.	.	.	.
.	.	8f#	ha	.	.	.	.	.
=39	=39	=39	=39	=39	=39	=39	=39	=39
2r	.	4.f#	_	1Emm	E:min9 (E G D F#)	.	.	voice
.	.	8d	ha	.	.	.	.	.
4r	.	2r	.	.	.	.	.	.
8r	.	.	.	.	.	.	.	.
8G	_	.	.	.	.	.	.	.
=40	=40	=40	=40	=40	=40	=40	=40	=40
4.d	know	4.d	know	1CMM	C:maj9 (C E B D)	.	.	voice
8[G	this	8[G	this	.	.	.	.	.
4G]	_	4G]	_	.	.	.	.	.
4r	.	4r	.	.	.	.	.	.
=41	=41	=41	=41	=41	=41	=41	=41	=41
4.d	much	4.d	much	1Bmm	B:min7 (B D F# A)	.	.	voice
8[G	is	8[G	is	.	.	.	.	.
8G]	_	8G]	_	.	.	.	.	.
4r	.	4r	.	.	.	.	.	.
8r	.	8r	.	.	.	.	.	.
=42	=42	=42	=42	=42	=42	=42	=42	=42
8e	true	4e	true!	1Am	A:min (A C E)	newline	101.025	voice
8d#q	_	.	.	.	.	.	.	.
16.e	_	.	.	.	.	.	.	.
32dd~	_	.	.	.	.	.	.	.
2r	.	2r	.	.	.	.	.	.
4r	.	4r	.	.	.	.	.	.
=43	=43	=43	=43	=43	=43	=43	=43	=43
1r	.	1r	.	1FM	F:maj6(9) (F A C D G)	.	.	voice
=44	=44	=44	=44	=44	=44	=44	=44	=44
1r	.	1r	.	1N	N	.	.	r
=45	=45	=45	=45	=45	=45	=45	=45	=45
*	*	*	*	*>B_verse	*>B_verse	*>B_verse	*>B_verse	*>B_verse
4r	.	1r	.	1GM	G:maj (G B D)	newline	108.436	voice
8B	With	.	.	.	.	.	.	.
8B	a	.	.	.	.	.	.	.
8c	thrill	.	.	.	.	.	.	.
8B	in	.	.	.	.	.	.	.
8B	my	.	.	.	.	.	.	.
16.d	head	.	.	.	.	.	.	.
32c	_	.	.	.	.	.	.	.
=46	=46	=46	=46	=46	=46	=46	=46	=46
16B	_	1r	.	1Bm	B:min (B D F#)	.	.	voice
8r	.	.	.	.	.	.	.	.
16r	.	.	.	.	.	.	.	.
8B	and	.	.	.	.	.	.	.
8B	a	.	.	.	.	.	.	.
8d	pill	.	.	.	.	.	.	.
4e	on	.	.	.	.	.	.	.
8[d	my	.	.	.	.	.	.	.
=47	=47	=47	=47	=47	=47	=47	=47	=47
8d]	_	1r	.	1CM	C:maj (C E G)	.	.	voice
4G	tongue	.	.	.	.	.	.	.
8r	.	.	.	.	.	.	.	.
8G	dis-	.	.	.	.	.	.	.
8A	-solve	.	.	.	.	.	.	.
8G	the	.	.	.	.	.	.	.
16.d	nerves	.	.	.	.	.	.	.
32c	_	.	.	.	.	.	.	.
=48	=48	=48	=48	=48	=48	=48	=48	=48
4.d	_	1r	.	1E-M	E-:maj (E- G B-)	.	.	voice
16c	that	.	.	.	.	.	.	.
16c	have	.	.	.	.	.	.	.
4G	just	.	.	.	.	.	.	.
8A	be-	.	.	.	.	.	.	.
16B	-gun	.	.	.	.	.	.	.
16A	_	.	.	.	.	.	.	.
=49	=49	=49	=49	=49	=49	=49	=49	=49
4B	_	1r	.	1GM	G:maj (G B D)	newline	118.211	voice
4r	.	.	.	.	.	.	.	.
8B	List-	.	.	.	.	.	.	.
8c	-'ning	.	.	.	.	.	.	.
8d	to	.	.	.	.	.	.	.
8[f#	Mar	.	.	.	.	.	.	.
=50	=50	=50	=50	=50	=50	=50	=50	=50
8f#]	_	2r	.	1Bm	B:min (B D F#)	.	.	voice
8d	_	.	.	.	.	.	.	.
4d	vin	.	.	.	.	.	.	.
2r	.	8B	All	.	.	.	.	.
.	.	8[a	night	.	.	.	.	.
.	.	16a]	_	.	.	.	.	.
.	.	16r	.	.	.	.	.	.
.	.	16gQ	_	.	.	.	.	.
.	.	8[a	long	.	.	.	.	.
=51	=51	=51	=51	=51	=51	=51	=51	=51
2r	.	8a]	_	2..CM	C:maj (C E G)	.	.	voice
.	.	4g	_	.	.	.	.	.
.	.	2r	.	.	.	.	.	.
8G	This	.	.	.	.	.	.	.
8A	is	.	.	.	.	.	.	.
8G	the	.	.	.	.	.	.	.
8[d	sound	8r	.	8Emm	E:min7 (E G B D)	newline	.	voice
=52	=52	=52	=52	=52	=52	=52	=52	=52
2d_	_	1r	.	2..Emm	E:min7 (E G B D)	.	125.71	voice
8d]	_	.	.	.	.	.	.	.
8e	of	.	.	.	.	.	.	.
8d	my	.	.	.	.	.	.	.
8[G	soul	.	.	8CM	C:maj (C E G)	.	.	voice
=53	=53	=53	=53	=53	=53	=53	=53	=53
4G]	_	2r	.	2..CM	C:maj (C E G)	.	.	voice
4r	.	.	.	.	.	.	.	.
8G	this	8G	_	.	.	.	.	.
8A	is	8A	_	.	.	.	.	.
8G	the	8G	_	.	.	.	.	.
16.d	sound	16.d	_	8GM	G:maj (G B D)	.	.	voice
32c	_	32c	_	.	.	.	.	.
=54	=54	=54	=54	=54	=54	=54	=54	=54
1d	_	1d	_	2GM	G:maj (G B D)	.	.	voice
.	.	.	.	2GM	G:maj (F# G B D)	.	.	voice
=55	=55	=55	=55	=55	=55	=55	=55	=55
4r	.	1r	.	1CM	C:maj (C E G)	.	.	voice
8e	Al-	.	.	.	.	.	.	.
8e	-ways	.	.	.	.	.	.	.
16e	slip-	.	.	.	.	.	.	.
16d	-ping	.	.	.	.	.	.	.
8c	from	.	.	.	.	.	.	.
8B	my	.	.	.	.	.	.	.
8Aq	_	.	.	.	.	.	.	.
8[B	hands	.	.	.	.	.	.	.
=56	=56	=56	=56	=56	=56	=56	=56	=56
16B]	_	1r	.	1GM	G:maj (G B D)	newline	133.019	voice
16A	_	.	.	.	.	.	.	.
8[B	_	.	.	.	.	.	.	.
8.B]	_	.	.	.	.	.	.	.
2r	.	.	.	.	.	.	.	.
16r	.	.	.	.	.	.	.	.
=57	=57	=57	=57	=57	=57	=57	=57	=57
4r	.	1r	.	2CM	C:maj (C E G)	.	.	voice
8c	Sand's	.	.	.	.	.	.	.
8c	a	.	.	.	.	.	.	.
8c	time	.	.	2CM	C:maj (B C E G)	.	.	voice
8B	of	.	.	.	.	.	.	.
8A	its	.	.	.	.	.	.	.
8[B	own	.	.	.	.	.	.	.
=58	=58	=58	=58	=58	=58	=58	=58	=58
16B]	_	1r	.	1GM	G:maj (G B D)	.	.	voice
16A	_	.	.	.	.	.	.	.
8[G	_	.	.	.	.	.	.	.
8G]	_	.	.	.	.	.	.	.
2r	.	.	.	.	.	.	.	.
8r	.	.	.	.	.	.	.	.
=59	=59	=59	=59	=59	=59	=59	=59	=59
4r	.	1r	.	2CM	C:maj (C E G)	.	.	voice
8e	Take	.	.	.	.	.	.	.
8e	your	.	.	.	.	.	.	.
8g	sea-	.	.	2CM	C:maj (B C E G)	.	.	voice
8g	-side	.	.	.	.	.	.	.
8eq	_	.	.	.	.	.	.	.
8d	arms	.	.	.	.	.	.	.
8d	and	.	.	.	.	.	.	.
=60	=60	=60	=60	=60	=60	=60	=60	=60
8e	write	1r	.	1GM	G:maj (G B D)	newline	142.901	voice
16d	the	.	.	.	.	.	.	.
16[d	next	.	.	.	.	.	.	.
8d]	_	.	.	.	.	.	.	.
8Aq	_	.	.	.	.	.	.	.
8B	line	.	.	.	.	.	.	.
8A	_	.	.	.	.	.	.	.
4r	.	.	.	.	.	.	.	.
8G	Oh,	.	.	.	.	.	.	.
=61	=61	=61	=61	=61	=61	=61	=61	=61
*M3/4	*	*M3/4	*	*M3/4	*M3/4	*M3/4	*M3/4	*M3/4
8c	I	2.r	.	4.CM	C:maj (C E G)	.	.	voice
8B	want	.	.	.	.	.	.	.
8G	the	.	.	.	.	.	.	.
8c	truth	.	.	4.CM	C:maj (B C E G)	.	.	voice
8B	to	.	.	.	.	.	.	.
8G	be	.	.	.	.	.	.	.
=62	=62	=62	=62	=62	=62	=62	=62	=62
*M4/4	*	*M4/4	*	*M4/4	*M4/4	*M4/4	*M4/4	*M4/4
2.G	known	1r	.	1FMM	F:maj9 (F A E G)	.	.	voice
4r	.	.	.	.	.	.	.	.
=63	=63	=63	=63	=63	=63	=63	=63	=63
*	*	*	*	*>A_chorus	*>A_chorus	*>A_chorus	*>A_chorus	*>A_chorus
1r	.	4r	.	1GM	G:maj (G B D)	newline	152.199	voice
.	.	4B	Ha	.	.	.	.	.
.	.	8c	ha	.	.	.	.	.
.	.	8d	ha	.	.	.	.	.
.	.	8r	.	.	.	.	.	.
.	.	8eq	_	.	.	.	.	.
.	.	8[f#	ha	.	.	.	.	.
=64	=64	=64	=64	=64	=64	=64	=64	=64
2r	.	4.f#]	_	1Emm	E:min9 (E G D F#)	.	.	voice
.	.	8d	ha	.	.	.	.	.
4r	.	2r	.	.	.	.	.	.
8r	.	.	.	.	.	.	.	.
8G	I	.	.	.	.	.	.	.
=65	=65	=65	=65	=65	=65	=65	=65	=65
4.d	know	4.d	know	1CMM	C:maj9 (C E B D)	.	.	voice
8[G	this	8[G	this	.	.	.	.	.
4G]	_	4G]	_	.	.	.	.	.
4r	.	4r	.	.	.	.	.	.
=66	=66	=66	=66	=66	=66	=66	=66	=66
4.d	much	4.d	much	1Bmm	B:min7 (B D F# A)	.	.	voice
8G	is	8G	is	.	.	.	.	.
4r	.	4r	.	.	.	.	.	.
8A	true!	8A	true!	.	.	.	.	.
8G	_	8G	_	.	.	.	.	.
=67	=67	=67	=67	=67	=67	=67	=67	=67
1r	.	4r	.	1GM	G:maj (G B D)	newline	161.991	voice
.	.	4B	Ha	.	.	.	.	.
.	.	8c	ha	.	.	.	.	.
.	.	8d	ha	.	.	.	.	.
.	.	8r	.	.	.	.	.	.
.	.	8eq	_	.	.	.	.	.
.	.	8f#	ha	.	.	.	.	.
=68	=68	=68	=68	=68	=68	=68	=68	=68
2r	.	4.f#	_	1Emm	E:min9 (E G D F#)	.	.	voice
.	.	8d	ha	.	.	.	.	.
4r	.	2r	.	.	.	.	.	.
8r	.	.	.	.	.	.	.	.
8G	_	.	.	.	.	.	.	.
=69	=69	=69	=69	=69	=69	=69	=69	=69
4.d	know	4.d	know	1CMM	C:maj9 (C E B D)	.	.	voice
8[G	this	8[G	this	.	.	.	.	.
4G]	_	4G]	_	.	.	.	.	.
4r	.	4r	.	.	.	.	.	.
=70	=70	=70	=70	=70	=70	=70	=70	=70
4.d	much	4.d	much	1Bmm	B:min7 (B D F# A)	.	.	voice
8[G	is	8[G	is	.	.	.	.	.
8G]	_	8G]	_	.	.	.	.	.
4r	.	4r	.	.	.	.	.	.
8r	.	8r	.	.	.	.	.	.
=71	=71	=71	=71	=71	=71	=71	=71	=71
8e	true	4e	true!	1Am	A:min (A C E)	newline	171.802	voice
8d#q	_	.	.	.	.	.	.	.
16.e	_	.	.	.	.	.	.	.
32dd~	_	.	.	.	.	.	.	.
2r	.	2r	.	.	.	.	.	.
4r	.	4r	.	.	.	.	.	.
=72	=72	=72	=72	=72	=72	=72	=72	=72
1r	.	1r	.	1FM	F:maj6(9) (F A C D G)	.	.	voice
=73	=73	=73	=73	=73	=73	=73	=73	=73
1r	.	1r	.	2..FM	F:maj6(9) (F A C D G)	.	.	voice
.	.	.	.	8E-M	E-:maj (E- G B-)	.	.	saxophone
=74	=74	=74	=74	=74	=74	=74	=74	=74
*E-:	*	*E-:	*	*>C_solo	*>C_solo	*>C_solo	*>C_solo	*>C_solo
*	*	*	*	*E-:	*E-:	*E-:	*E-:	*E-:
1r	.	1r	.	1E-M	E-:maj (E- G B-)	newline	179.298	saxophone
=75	=75	=75	=75	=75	=75	=75	=75	=75
1r	.	1r	.	1A-M	A-:maj (A- C E-)	.	.	saxophone
=76	=76	=76	=76	=76	=76	=76	=76	=76
1r	.	1r	.	1E-M	E-:maj (E- G B-)	.	.	saxophone
=77	=77	=77	=77	=77	=77	=77	=77	=77
1r	.	1r	.	1A-M	A-:maj (A- C E-)	.	.	saxophone
=78	=78	=78	=78	=78	=78	=78	=78	=78
1r	.	1r	.	1E-M	E-:maj (E- G B-)	newline	189.132	saxophone
=79	=79	=79	=79	=79	=79	=79	=79	=79
1r	.	1r	.	1A-M	A-:maj (A- C E-)	.	.	saxophone
=80	=80	=80	=80	=80	=80	=80	=80	=80
1r	.	1r	.	1E-M	E-:maj (E- G B-)	.	.	saxophone
=81	=81	=81	=81	=81	=81	=81	=81	=81
1r	.	1r	.	1A-M	A-:maj (A- C E-)	.	.	saxophone
=82	=82	=82	=82	=82	=82	=82	=82	=82
1r	.	1r	.	1E-M	E-:maj (E- G B-)	newline	198.961	saxophone
=83	=83	=83	=83	=83	=83	=83	=83	=83
1r	.	1r	.	1A-M	A-:maj (A- C E-)	.	.	saxophone
=84	=84	=84	=84	=84	=84	=84	=84	=84
1r	.	1r	.	1E-M	E-:maj (E- G B-)	.	.	saxophone
=85	=85	=85	=85	=85	=85	=85	=85	=85
1r	.	1r	.	1A-M	A-:maj (A- C E-)	.	.	saxophone
=86	=86	=86	=86	=86	=86	=86	=86	=86
1r	.	1r	.	1E-M	E-:maj (E- G B-)	newline	208.84	saxophone
=87	=87	=87	=87	=87	=87	=87	=87	=87
1r	.	1r	.	1A-M	A-:maj (A- C E-)	.	.	saxophone
=88	=88	=88	=88	=88	=88	=88	=88	=88
*C:	*	*C:	*	*C:	*C:	*C:	*C:	*C:
1r	.	1r	.	1GM	G:maj (G B D)	.	.	saxophone
=89	=89	=89	=89	=89	=89	=89	=89	=89
1r	.	1r	.	1GM	G:maj (G B D)	.	.	saxophone
=90	=90	=90	=90	=90	=90	=90	=90	=90
*	*	*	*	*>B_verse	*>B_verse	*>B_verse	*>B_verse	*>B_verse
8r	.	1r	.	2CM	C:maj (C E G)	newline	218.678	voice
8e	I	.	.	.	.	.	.	.
8e	bought	.	.	.	.	.	.	.
8e	a	.	.	.	.	.	.	.
16e	ti-	.	.	2CM	C:maj (B C E G)	.	.	voice
16e	-cket	.	.	.	.	.	.	.
8f#	to	.	.	.	.	.	.	.
8e	the	.	.	.	.	.	.	.
8g	wo-	.	.	.	.	.	.	.
=91	=91	=91	=91	=91	=91	=91	=91	=91
8r	.	1r	.	1GM	G:maj (G B D)	.	.	voice
8e	-ho-	.	.	.	.	.	.	.
8r	.	.	.	.	.	.	.	.
8[d	-horld	.	.	.	.	.	.	.
8d]	_	.	.	.	.	.	.	.
16B	_	.	.	.	.	.	.	.
16ee-~	_	.	.	.	.	.	.	.
4r	.	.	.	.	.	.	.	.
=92	=92	=92	=92	=92	=92	=92	=92	=92
8r	.	1r	.	1CM	C:maj (C E G)	.	.	voice
8c	But	.	.	.	.	.	.	.
8c	now	.	.	.	.	.	.	.
8c	I've	.	.	.	.	.	.	.
8c	come	.	.	.	.	.	.	.
8B	back	.	.	.	.	.	.	.
8A	a-	.	.	.	.	.	.	.
16.B	-gain	.	.	.	.	.	.	.
32A	_	.	.	.	.	.	.	.
=93	=93	=93	=93	=93	=93	=93	=93	=93
8B	_	1r	.	1GM	G:maj (G B D)	.	.	voice
2r	.	.	.	.	.	.	.	.
4r	.	.	.	.	.	.	.	.
8r	.	.	.	.	.	.	.	.
=94	=94	=94	=94	=94	=94	=94	=94	=94
4r	.	1r	.	2CM	C:maj (C E G)	newline	228.478	voice
8e	Why	.	.	.	.	.	.	.
16e	do	.	.	.	.	.	.	.
16e	I	.	.	.	.	.	.	.
8g	find	.	.	2CM	C:maj (B C E G)	.	.	voice
8g	it	.	.	.	.	.	.	.
8eq	_	.	.	.	.	.	.	.
8d	hard	.	.	.	.	.	.	.
8d	to	.	.	.	.	.	.	.
=95	=95	=95	=95	=95	=95	=95	=95	=95
8e	write	1r	.	1GM	G:maj (G B D)	.	.	voice
16d	the	.	.	.	.	.	.	.
16[d	next	.	.	.	.	.	.	.
8d]	_	.	.	.	.	.	.	.
8Aq	_	.	.	.	.	.	.	.
8B	line	.	.	.	.	.	.	.
4A	_	.	.	.	.	.	.	.
8r	.	.	.	.	.	.	.	.
8G	Oh,	.	.	.	.	.	.	.
=96	=96	=96	=96	=96	=96	=96	=96	=96
*M3/4	*	*M3/4	*	*M3/4	*M3/4	*M3/4	*M3/4	*M3/4
8c	I	2.r	.	4.CM	C:maj (C E G)	.	.	voice
8B	want	.	.	.	.	.	.	.
8G	the	.	.	.	.	.	.	.
8c	truth	.	.	4.GM	G:maj (B G D)	.	.	voice
8B	to	.	.	.	.	.	.	.
8G	be	.	.	.	.	.	.	.
=97	=97	=97	=97	=97	=97	=97	=97	=97
*M4/4	*	*M4/4	*	*M4/4	*M4/4	*M4/4	*M4/4	*M4/4
2.[g	said	1r	.	1FMM	F:maj9 (F A E G)	.	.	voice
16g]	_	.	.	.	.	.	.	.
16ee~	_	.	.	.	.	.	.	.
8r	.	.	.	.	.	.	.	.
=98	=98	=98	=98	=98	=98	=98	=98	=98
1r	.	1r	.	1FMM	F:maj9 (F A E G)	.	.	voice
=99	=99	=99	=99	=99	=99	=99	=99	=99
*	*	*	*	*>A_chorus	*>A_chorus	*>A_chorus	*>A_chorus	*>A_chorus
1r	.	4r	.	1GM	G:maj (G B D)	newline	240.187	voice
.	.	4B	Ha	.	.	.	.	.
.	.	8c	ha	.	.	.	.	.
.	.	8d	ha	.	.	.	.	.
.	.	8r	.	.	.	.	.	.
.	.	8eq	_	.	.	.	.	.
.	.	8[f#	ha	.	.	.	.	.
=100	=100	=100	=100	=100	=100	=100	=100	=100
2r	.	4.f#]	_	1Emm	E:min9 (E G D F#)	.	.	voice
.	.	8d	ha	.	.	.	.	.
4r	.	2r	.	.	.	.	.	.
8r	.	.	.	.	.	.	.	.
8G	I	.	.	.	.	.	.	.
=101	=101	=101	=101	=101	=101	=101	=101	=101
4.d	know	4.d	know	1CMM	C:maj9 (C E B D)	.	.	voice
8[G	this	8[G	this	.	.	.	.	.
4G]	_	4G]	_	.	.	.	.	.
4r	.	4r	.	.	.	.	.	.
=102	=102	=102	=102	=102	=102	=102	=102	=102
4.d	much	4.d	much	1Bmm	B:min7 (B D F# A)	.	.	voice
8G	is	8G	is	.	.	.	.	.
4r	.	4r	.	.	.	.	.	.
8A	true!	8A	true!	.	.	.	.	.
8G	_	8G	_	.	.	.	.	.
=103	=103	=103	=103	=103	=103	=103	=103	=103
1r	.	4r	.	1GM	G:maj (G B D)	newline	250.037	voice
.	.	4B	Ha	.	.	.	.	.
.	.	8c	ha	.	.	.	.	.
.	.	8d	ha	.	.	.	.	.
.	.	8r	.	.	.	.	.	.
.	.	8eq	_	.	.	.	.	.
.	.	8f#	ha	.	.	.	.	.
=104	=104	=104	=104	=104	=104	=104	=104	=104
2r	.	4.f#	_	1Emm	E:min9 (E G D F#)	.	.	voice
.	.	8d	ha	.	.	.	.	.
4r	.	2r	.	.	.	.	.	.
8r	.	.	.	.	.	.	.	.
8G	I	.	.	.	.	.	.	.
=105	=105	=105	=105	=105	=105	=105	=105	=105
4.d	know	4.d	know	1CMM	C:maj9 (C E B D)	.	.	voice
8[G	this	8[G	this	.	.	.	.	.
4G]	_	4G]	_	.	.	.	.	.
4r	.	4r	.	.	.	.	.	.
=106	=106	=106	=106	=106	=106	=106	=106	=106
4.d	much	4.d	much	1Bmm	B:min7 (B D F# A)	.	.	voice
8[G	is	8[G	is	.	.	.	.	.
8G]	_	8G]	_	.	.	.	.	.
4r	.	4r	.	.	.	.	.	.
8r	.	8r	.	.	.	.	.	.
=107	=107	=107	=107	=107	=107	=107	=107	=107
*	*	*	*	*>D_coda	*>D_coda	*>D_coda	*>D_coda	*>D_coda
8e	true	4e	true	1Amm	A:min7 (A C E G)	newline	259.932	voice
8d#q	_	.	.	.	.	.	.	.
16.e	_	.	.	.	.	.	.	.
32dd~	_	.	.	.	.	.	.	.
2r	.	2r	.	.	.	.	.	.
4r	.	4r	.	.	.	.	.	.
=108	=108	=108	=108	=108	=108	=108	=108	=108
1r	.	1r	.	1Emm	E:min7 (E G D D)	.	.	voice
=109	=109	=109	=109	=109	=109	=109	=109	=109
1r	.	1r	.	1Amm	A:min7 (A C E G)	.	.	voice
=110	=110	=110	=110	=110	=110	=110	=110	=110
2r	.	1r	.	1Emm	E:min9 (E G D D)	.	.	voice
8r	.	.	.	.	.	.	.	.
16f#	This	.	.	.	.	.	.	.
16[g	_	.	.	.	.	.	.	.
4g]	_	.	.	.	.	.	.	.
=111	=111	=111	=111	=111	=111	=111	=111	=111
12g	much	1r	.	1Amm	A:min7 (A C E G)	newline	269.772	voice
6e	is	.	.	.	.	.	.	.
8e	true	.	.	.	.	.	.	.
8d#q	_	.	.	.	.	.	.	.
16.e	_	.	.	.	.	.	.	.
32b~	_	.	.	.	.	.	.	.
2r	.	.	.	.	.	.	.	.
=112	=112	=112	=112	=112	=112	=112	=112	=112
1r	.	1r	.	1FM	F:maj6(9) (F A C D G)	.	.	voice
=113	=113	=113	=113	=113	=113	=113	=113	=113
1r	.	1r	.	1FM	F:maj6(9) (F A C D G)	.	.	voice
=114	=114	=114	=114	=114	=114	=114	=114	=114
*	*	*	*	*>A2_outro	*>A2_outro	*>A2_outro	*>A2_outro	*>A2_outro
1r	.	8r	.	1GM	G:maj (G B D)	newline	277.128	voice
.	.	8D 8d	This	.	.	.	.	.
.	.	8D 8d	much	.	.	.	.	.
.	.	16E 16e	is	.	.	.	.	.
.	.	16D 16d	a'	.	.	.	.	.
.	.	8G 8g	true	.	.	.	.	.
.	.	16A# 16a#	_	.	.	.	.	.
.	.	16B 16b	_	.	.	.	.	.
.	.	4r	.	.	.	.	.	.
=115	=115	=115	=115	=115	=115	=115	=115	=115
1r	.	8r	.	1Emm	E:min9 (E G D F#)	.	.	voice
.	.	8D 8d	This	.	.	.	.	.
.	.	8D 8d	much	.	.	.	.	.
.	.	16E 16e	is	.	.	.	.	.
.	.	16D 16d	a'	.	.	.	.	.
.	.	8G 8g	true	.	.	.	.	.
.	.	16A# 16a#	_	.	.	.	.	.
.	.	16B 16b	_	.	.	.	.	.
.	.	8r	.	.	.	.	.	.
.	.	8G 8g	hoo!	.	.	.	.	.
=116	=116	=116	=116	=116	=116	=116	=116	=116
2r	.	1r	.	1CMM	C:maj9 (C E B D)	.	.	voice
4r	.	.	.	.	.	.	.	.
8r	.	.	.	.	.	.	.	.
8g	I	.	.	.	.	.	.	.
=117	=117	=117	=117	=117	=117	=117	=117	=117
8g	know,	1r	.	1Bmm	B:min7 (B D F# A)	.	.	voice
8f#	I	.	.	.	.	.	.	.
8f#	know,	.	.	.	.	.	.	.
8e	I	.	.	.	.	.	.	.
8e	know	.	.	.	.	.	.	.
8d	this	.	.	.	.	.	.	.
8d	much	.	.	.	.	.	.	.
8e	is	.	.	.	.	.	.	.
=118	=118	=118	=118	=118	=118	=118	=118	=118
8.d	true	8r	.	1GM	G:maj (G B D)	newline	287.025	voice
.	.	8D 8d	This	.	.	.	.	.
16c	_	.	.	.	.	.	.	.
8B	_	8D 8d	much	.	.	.	.	.
2r	.	16E 16e	is	.	.	.	.	.
.	.	16D 16d	a'	.	.	.	.	.
.	.	8G 8g	true	.	.	.	.	.
.	.	16A# 16a#	_	.	.	.	.	.
.	.	16B 16b	_	.	.	.	.	.
.	.	4r	.	.	.	.	.	.
8r	.	.	.	.	.	.	.	.
=119	=119	=119	=119	=119	=119	=119	=119	=119
1r	.	8r	.	1Emm	E:min9 (E G D F#)	.	.	voice
.	.	8D 8d	This	.	.	.	.	.
.	.	8D 8d	much	.	.	.	.	.
.	.	16E 16e	is	.	.	.	.	.
.	.	16D 16d	a'	.	.	.	.	.
.	.	8G 8g	true	.	.	.	.	.
.	.	16A# 16a#	_	.	.	.	.	.
.	.	16B 16b	_	.	.	.	.	.
.	.	8r	.	.	.	.	.	.
.	.	8G 8g	hoo!	.	.	.	.	.
=120	=120	=120	=120	=120	=120	=120	=120	=120
1r	.	1r	.	1CMM	C:maj9 (C E B D)	.	.	voice
=121	=121	=121	=121	=121	=121	=121	=121	=121
1r	.	1r	.	1Bmm	B:min7 (B D F# A)	.	.	voice
=122	=122	=122	=122	=122	=122	=122	=122	=122
2r	.	8r	.	1GM	G:maj (G B D)	newline	296.867	voice
.	.	8D 8d	This	.	.	.	.	.
.	.	8D 8d	much	.	.	.	.	.
.	.	16E 16e	is	.	.	.	.	.
.	.	16D 16d	a'	.	.	.	.	.
4r	.	8G 8g	true	.	.	.	.	.
.	.	16A# 16a#	_	.	.	.	.	.
.	.	16B 16b	_	.	.	.	.	.
8r	.	4r	.	.	.	.	.	.
16e	Ha	.	.	.	.	.	.	.
16[f#	_	.	.	.	.	.	.	.
=123	=123	=123	=123	=123	=123	=123	=123	=123
2f#]	_	8r	.	1Emm	E:min9 (E G D F#)	.	.	voice
.	.	8D 8d	This	.	.	.	.	.
.	.	8D 8d	much	.	.	.	.	.
.	.	16E 16e	is	.	.	.	.	.
.	.	16D 16d	a'	.	.	.	.	.
4r	.	8G 8g	true	.	.	.	.	.
.	.	16A# 16a#	_	.	.	.	.	.
.	.	16B 16b	_	.	.	.	.	.
8r	.	8r	.	.	.	.	.	.
8g	I	8G 8g	hoo!	.	.	.	.	.
=124	=124	=124	=124	=124	=124	=124	=124	=124
4.g	know	4.d	_	1CMM	C:maj9 (C E B D)	.	.	voice
16d	this	8[G	_	.	.	.	.	.
16[e	_	.	.	.	.	.	.	.
8e]	_	4G]	_	.	.	.	.	.
4r	.	.	.	.	.	.	.	.
.	.	4r	.	.	.	.	.	.
8r	.	.	.	.	.	.	.	.
=125	=125	=125	=125	=125	=125	=125	=125	=125
8f#q	_	.	.	.	.	.	.	.
4.g	much	4.d	_	1Bmm	B:min7 (B D F# A)	.	.	voice
8d	is	8G	_	.	.	.	.	.
4r	.	4r	.	.	.	.	.	.
8gq	_	.	.	.	.	.	.	.
8a	true	8A	_	.	.	.	.	.
8g	_	8G	_	.	.	.	.	.
=126	=126	=126	=126	=126	=126	=126	=126	=126
*	*	*	*	*>_fadeout	*>_fadeout	*>_fadeout	*>_fadeout	*>_fadeout
2r	.	8r	.	1GM	G:maj (G B D)	newline	306.669	voice
.	.	8D 8d	This	.	.	.	.	.
.	.	8D 8d	much	.	.	.	.	.
.	.	16E 16e	is	.	.	.	.	.
.	.	16D 16d	a'	.	.	.	.	.
4r	.	8G 8g	true	.	.	.	.	.
.	.	16A# 16a#	_	.	.	.	.	.
.	.	16B 16b	_	.	.	.	.	.
8r	.	4r	.	.	.	.	.	.
16e	Ha	.	.	.	.	.	.	.
16[f#	_	.	.	.	.	.	.	.
=127	=127	=127	=127	=127	=127	=127	=127	=127
2f#]	_	8r	.	1Emm	E:min9 (E G D F#)	.	.	voice
.	.	8D 8d	This	.	.	.	.	.
.	.	8D 8d	much	.	.	.	.	.
.	.	16E 16e	is	.	.	.	.	.
.	.	16D 16d	a'	.	.	.	.	.
2r	.	8G 8g	true	.	.	.	.	.
.	.	16A# 16a#	_	.	.	.	.	.
.	.	16B 16b	_	.	.	.	.	.
.	.	8r	.	.	.	.	.	.
.	.	8G 8g	hoo!	.	.	.	.	.
=128	=128	=128	=128	=128	=128	=128	=128	=128
1r	.	4.d	Know	1CMM	C:maj9 (C E B D)	.	.	voice
.	.	8[G	this	.	.	.	.	.
.	.	4G]	_	.	.	.	.	.
.	.	4r	.	.	.	.	.	.
=129	=129	=129	=129	=129	=129	=129	=129	=129
1r	.	4.d	Much	1Bmm	B:min7 (B D F# A)	.	.	voice
.	.	8G	is	.	.	.	.	.
.	.	4r	.	.	.	.	.	.
.	.	8A	true	.	.	.	.	.
.	.	8G	_	.	.	.	.	.
=130	=130	=130	=130	=130	=130	=130	=130	=130
1r	.	8r	.	1GM	G:maj (G B D)	newline	316.521	voice
.	.	8D 8d	This	.	.	.	.	.
.	.	8D 8d	much	.	.	.	.	.
.	.	16E 16e	is	.	.	.	.	.
.	.	16D 16d	a'	.	.	.	.	.
.	.	8G 8g	true	.	.	.	.	.
.	.	16A# 16a#	_	.	.	.	.	.
.	.	16B 16b	_	.	.	.	.	.
.	.	4r	.	.	.	.	.	.
=131	=131	=131	=131	=131	=131	=131	=131	=131
1r	.	8r	.	1Emm	E:min9 (E G D F#)	.	.	voice
.	.	8D 8d	This	.	.	.	.	.
.	.	8D 8d	much	.	.	.	.	.
.	.	16E 16e	is	.	.	.	.	.
.	.	16D 16d	a'	.	.	.	.	.
.	.	8G 8g	true	.	.	.	.	.
.	.	16A# 16a#	_	.	.	.	.	.
.	.	16B 16b	_	.	.	.	.	.
.	.	8r	.	.	.	.	.	.
.	.	8G 8g	hoo!	.	.	.	.	.
=132	=132	=132	=132	=132	=132	=132	=132	=132
2r	.	4.d	know	1CMM	C:maj9 (C E B D)	.	.	voice
.	.	8[G	this	.	.	.	.	.
4r	.	4G]	_	.	.	.	.	.
8r	.	4r	.	.	.	.	.	.
8g	I	.	.	.	.	.	.	.
=133	=133	=133	=133	=133	=133	=133	=133	=133
8g	know,	4.d	much	1Bmm	B:min7 (B D F# A)	.	.	voice
8f#	I	.	.	.	.	.	.	.
8f#	know,	.	.	.	.	.	.	.
8e	I	8G	is	.	.	.	.	.
8e	know	4r	.	.	.	.	.	.
8d	this	.	.	.	.	.	.	.
8d	much	8A	true	.	.	.	.	.
8e	is	8G	_	.	.	.	.	.
=134	=134	=134	=134	=134	=134	=134	=134	=134
8.d	true	8r	.	1GM	G:maj (G B D)	newline	326.398	voice
.	.	8D 8d	This	.	.	.	.	.
16c	_	.	.	.	.	.	.	.
8B	_	8D 8d	much	.	.	.	.	.
2r	.	16E 16e	is	.	.	.	.	.
.	.	16D 16d	a'	.	.	.	.	.
.	.	8G 8g	true	.	.	.	.	.
.	.	16A# 16a#	_	.	.	.	.	.
.	.	16B 16b	_	.	.	.	.	.
.	.	4r	.	.	.	.	.	.
16e	Ha	.	.	.	.	.	.	.
16[f#	_	.	.	.	.	.	.	.
=135	=135	=135	=135	=135	=135	=135	=135	=135
2f#]	_	8r	.	1Emm	E:min9 (E G D F#)	.	.	voice
.	.	8D 8d	This	.	.	.	.	.
.	.	8D 8d	much	.	.	.	.	.
.	.	16E 16e	is	.	.	.	.	.
.	.	16D 16d	a'	.	.	.	.	.
2r	.	8G 8g	true	.	.	.	.	.
.	.	16A# 16a#	_	.	.	.	.	.
.	.	16B 16b	_	.	.	.	.	.
.	.	8r	.	.	.	.	.	.
.	.	8G 8g	hoo!	.	.	.	.	.
=136	=136	=136	=136	=136	=136	=136	=136	=136
1r	.	1r	.	1CMM	C:maj9 (C E B D)	.	.	voice
=137	=137	=137	=137	=137	=137	=137	=137	=137
1r	.	1r	.	1Bmm	B:min7 (B D F# A)	.	.	voice
=138	=138	=138	=138	=138	=138	=138	=138	=138
1r	.	1r	.	1GM	G:maj (G B D)	.	.	voice
r;	.	r;	.	1r;	r	.	337.456	r
r;	.	r;	.	1r;	r	.	343.118	r
*-	*-	*-	*-	*-	*-	*-	*-	*-
!!!BillboardChartDate: 1983/08/20
!!!BillboardPeak: 4
!!!BillboardWeeksOnChart: 18
!!!COC: Spandau Ballet
!!!ENC: Nathaniel Condit-Schultz
!!!EST: Awating manual error checking and editing.
!!!OTL: True
!!!RDF**chordsym: original McGill chord annotation + (implied pitch class set, with bass pitch in first position)
!!!RDF**harmony: **recip + pitch class of root + harmonic quality
!!!RDF**leadinstrument: original McGill primary instrumentation annotation
!!!RDF**phrase: newline = linebreak in original McGill transcription
!!!RDF**timestamp: McGill audio timestamp in seconds
!!!RDT: 2017/01/12/
!!!SampleActualRank: 42
!!!SampleID#: 0091
!!!SampleTargetRank: 41
